X:1
T:Chwalcie łąki umajone
T:mel.: ks. M. Mycielski harm.: ks. Andris Solims
T:t.: ks. Karol Antoniewicz, SI
T:Chwalcie łąki umajone
T:Veltījums manai mīļajai māmiņai Annai Solimai viņas dzīves 85 gadu jubilejā 22.05.2015.
C:mel.: ks. M. Mycielski
C:harm.: ks. Andris Solims
Z:t.: ks. Karol Antoniewicz, SI
%%score [ ( 1 2 ) ( 3 4 ) ]
L:1/8
Q:1/4=80
M:3/4
K:G
V:1 treble nm="P1"
V:2 treble 
V:3 bass nm="P2"
V:4 bass 
V:1
!mf!"^Andante" DD G2 G2 | FG (AF) D2 | DF A2 A2 | GA (BA) G2 |:!f! B3 A cB | AG F2 E2 | GE D2 G2 | %7
w: 1. cie, łą- ki|u- ma- jo- * ne,|gó- ry do- li-|ny zie- lo- * ne,|1. cie, cie- ni-|ste ga- i- ki,|źró- dła i krę-|
w: 2. i- gra z~mo-|rza fa- la- * mi,|w~po- wie- trzu bu-|ja skrzy- dła- * mi,|2. cie z~na- mi|Pa- nią świa- ta,|jej dłoń na- sza|
w: 3. na dzieł Bo-|skich ko- ro- * na,|nad a- nio- ły|wy- wyż- szo- * na.|3. jest Pa- nią|nie- ba, zie- mi,|nie ga- rdzi da-|
w: 4. cznym stru- my-|ki mru- cze- * niem,|pta- szę- ta sło-|dkim kwi- le- * niem,|4. co czu- je,|i co ży- je,|niech z~na- mi sła-|
 FA A2 G2 :| %8
w: te stru- my- ki!|
w: wie- niec spla- ta.|
w: ry na- szy- mi.|
w: wi Ma- ry- ję!|
V:2
 DD D2 E2 | D^C D2 D2 | DD F2 F2 | EF (GF) D2 |: G3 F G^G | EE ^D2 E2 | E^C (D=C) (DE) | %7
 DF (ED) D2 :| %8
V:3
 DC B,2 ^C2 | A,A, A,2 F,2 | F,A, C2 B,2 | B,C (DC) B,2 |: D3 C ED | CB, A,2 (G,^A,) | %6
 B,G, (F,A,) B,2 | A,C C2 B,2 :| %8
V:4
 D,D, G,2 A,2 | D,E, (F,D,) D,2 | D,D, D,2 ^D,2 | E,^D, =D,2 G,2 |: (G,F, E,)E, A,,B,, | %5
 C,^C, ^D,2 (E,=D,) | ^C,A,, (D,F,) (G,E,) | D,D, (E,F,) G,2 :| %8

